Yosa-Max/places/scalable/user-home.svg

<?xml version="1.0" encoding="UTF-8"?>
<svg id="svg5453" version="1.1" viewBox="0 0 64 64" xmlns="http://www.w3.org/2000/svg">
 <defs id="defs5455">
  <linearGradient id="linearGradient833" x1="32.010437" x2="31.962496" y1="57.89262" y2="15.119835" gradientTransform="translate(0,-3.8146973e-6)" gradientUnits="userSpaceOnUse">
   <stop id="stop827" style="stop-color:#20bcfa" offset="0"/>
   <stop id="stop829" style="stop-color:#46c7fc" offset="1"/>
  </linearGradient>
 </defs>
 <path id="folderTab-3" d="m4 6c-0.55122 0.05512-1 0.446-1 1v42h58v-38c0-1-1-1-1-1h-27c-2-4-6-4-6-4h-22z" style="fill-rule:evenodd;fill:#209efa"/>
 <path id="folderPaper-6" d="m7 13h50v32h-50z" style="color-rendering:auto;color:#000000;fill:#fffbec;image-rendering:auto;isolation:auto;mix-blend-mode:normal;shape-rendering:auto;solid-color:#000000;text-decoration-color:#000000;text-decoration-line:none;text-decoration-style:solid;white-space:normal"/>
 <path id="folderFront-2" d="m39 14.999996s-4 0-6 4h-31s-0.1319813 0.01691-0.2890625 0.05859c-0.045956 0.01404-0.091922 0.02277-0.1347656 0.04297-0.2742277 0.109838-0.5761719 0.34321-0.5761719 0.89844v37c0 0.55397 0.44603 1 1 1h60c0.55397 0 1-0.44603 1-1v-41c0-0.55397-0.44603-1-1-1h-1z" style="fill-rule:evenodd;fill:url(#linearGradient833)"/>
 <path id="path830" d="m32.00026 27.999959v0.0029l-0.0133 0.01114-9.98696 8.869955 1.42708 1.799662 0.79687-0.708704v10.025088h5.77604v-7.142839h3.99999v7.142839h5.77863v-10.02508l0.79692 0.708703 1.42447-1.79966-3.77603-3.356578v-5.527329h-2.22395v3.554679l-3.98697-3.540729-0.0107-0.014z" style="fill:#f9f9f9;paint-order:stroke fill markers"/>
</svg>

<?xml version="1.0" encoding="UTF-8" standalone="no"?>
<svg
   xmlns:dc="http://purl.org/dc/elements/1.1/"
   xmlns:cc="http://creativecommons.org/ns#"
   xmlns:rdf="http://www.w3.org/1999/02/22-rdf-syntax-ns#"
   xmlns:svg="http://www.w3.org/2000/svg"
   xmlns="http://www.w3.org/2000/svg"
   xmlns:xlink="http://www.w3.org/1999/xlink"
   xmlns:sodipodi="http://sodipodi.sourceforge.net/DTD/sodipodi-0.dtd"
   xmlns:inkscape="http://www.inkscape.org/namespaces/inkscape"
   width="64"
   height="64"
   id="svg5453"
   version="1.1"
   viewBox="0 0 64 64"
   sodipodi:docname="user-home.svg"
   inkscape:version="0.92.4 (unknown)">
  <sodipodi:namedview
     pagecolor="#ffffff"
     bordercolor="#666666"
     borderopacity="1"
     objecttolerance="10"
     gridtolerance="10"
     guidetolerance="10"
     inkscape:pageopacity="0"
     inkscape:pageshadow="2"
     inkscape:window-width="1366"
     inkscape:window-height="711"
     id="namedview14"
     showgrid="false"
     inkscape:zoom="3.6875"
     inkscape:cx="32"
     inkscape:cy="32"
     inkscape:window-x="0"
     inkscape:window-y="0"
     inkscape:window-maximized="1"
     inkscape:current-layer="svg5453" />
  <defs
     id="defs5455">
    <linearGradient
       id="linearGradient831">
      <stop
         id="stop827"
         offset="0"
         style="stop-color:#20bcfa;stop-opacity:1;" />
      <stop
         id="stop829"
         offset="1"
         style="stop-color:#46c7fc;stop-opacity:1" />
    </linearGradient>
    <linearGradient
       gradientTransform="translate(0,-3.8146973e-6)"
       gradientUnits="userSpaceOnUse"
       y2="15.119835"
       x2="31.962496"
       y1="57.89262"
       x1="32.010437"
       id="linearGradient833"
       xlink:href="#linearGradient831" />
  </defs>
  <metadata
     id="metadata5458">
    <rdf:RDF>
      <cc:Work
         rdf:about="">
        <dc:format>image/svg+xml</dc:format>
        <dc:type
           rdf:resource="http://purl.org/dc/dcmitype/StillImage" />
        <dc:title />
      </cc:Work>
    </rdf:RDF>
  </metadata>
  <path
     id="folderTab-3"
     d="M 4,6 C 3.44878,6.05512 3,6.446 3,7 V 9 49 H 61 V 14 13 11 c 0,-1 -1,-1 -1,-1 H 58 37 33 C 31,6 27,6 27,6 H 5 Z"
     style="fill:#209efa;fill-opacity:1;fill-rule:evenodd;stroke:none;stroke-width:1px;stroke-linecap:butt;stroke-linejoin:miter;stroke-opacity:1" />
  <path
     id="folderPaper-6"
     d="M 7,13 H 57 V 45 H 7 Z"
     style="color:#000000;text-decoration:none;text-decoration-line:none;text-decoration-style:solid;text-decoration-color:#000000;white-space:normal;clip-rule:nonzero;display:inline;overflow:visible;visibility:visible;opacity:1;isolation:auto;mix-blend-mode:normal;color-interpolation:sRGB;color-interpolation-filters:linearRGB;solid-color:#000000;solid-opacity:1;fill:#fffbec;fill-opacity:1;fill-rule:nonzero;stroke:none;stroke-width:1;stroke-linecap:butt;stroke-linejoin:miter;stroke-miterlimit:4;stroke-dasharray:none;stroke-dashoffset:0;stroke-opacity:1;color-rendering:auto;image-rendering:auto;shape-rendering:auto;text-rendering:auto;enable-background:accumulate" />
  <path
     id="folderFront-2"
     d="m 39,14.999996 c 0,0 -4,0 -6,4 H 29 4 2 c 0,0 -0.1319813,0.01691 -0.2890625,0.05859 -0.045956,0.01404 -0.091922,0.02277 -0.1347656,0.04297 C 1.3019442,19.211394 1,19.444766 1,19.999996 v 2 1 34 c 0,0.55397 0.44603,1 1,1 h 60 c 0.55397,0 1,-0.44603 1,-1 v -39 -2 c 0,-0.55397 -0.44603,-1 -1,-1 h -1 z"
     style="fill:url(#linearGradient833);fill-opacity:1;fill-rule:evenodd;stroke:none;stroke-width:1px;stroke-linecap:butt;stroke-linejoin:miter;stroke-opacity:1" />
  <path
     inkscape:connector-curvature="0"
     id="path830"
     d="m 32.00026,27.999959 v 0.0029 l -0.0133,0.01114 L 22,36.883954 l 1.42708,1.799662 0.79687,-0.708704 V 45.647886 48 h 2.22135 3.55469 v -7.142839 h 3.99999 V 48 h 5.77863 V 45.647893 37.97492 L 40.57553,38.683623 42,36.883963 38.22397,33.527385 v -5.527329 h -2.22395 v 3.554679 l -3.98697,-3.540729 -0.0107,-0.014 z"
     style="opacity:1;vector-effect:none;fill:#e3f9f9;fill-opacity:1;stroke:none;stroke-width:2.23634315;stroke-linecap:butt;stroke-linejoin:miter;stroke-miterlimit:4;stroke-dasharray:none;stroke-dashoffset:0;stroke-opacity:1;paint-order:stroke fill markers" />
</svg>
